!!!COM: Bach, Johann Sebastian
!!!OPR: Joh. Seb. Bachs vierstimmige Choralgesänge
!!!XEN: Four-part Chorales
!!!OTL: Chorale 68. Gottlob, es geht nunmehr zum Ende
!!!SCT: BWV 321
!!!SCA: Thematisch-systematisches Verzeichnis der musikalischen Werke Johann Sebastian Bach: Bach-Werke-Verzeichnis (Schmieder)
!!!YOR: Bach Gesellschaft Edition xxxix
!!!ENC: Steven Rasmussen
!!!CDT: 1685/3//-1750/7/28/
!!!OCY: Deutschland
!!!YEC: Copyright (c) 1994, 2000 Center for Computer Assisted Research in the Humanities
!!!YEM: Rights to all derivative editions reserved
!!!YEN: United States of America
**kern	**silbe	**kern	**silbe	**kern	**silbe	**kern	**silbe
*I:[BASSO]	*I:[BASSO]	*I:[TENORE]	*I:[TENORE]	*I:[ALTO]	*I:[ALTO]	*I:[SOPRANO]	*I:[SOPRANO]
*>[A,A,B]	*>[A,A,B]	*>[A,A,B]	*>[A,A,B]	*>[A,A,B]	*>[A,A,B]	*>[A,A,B]	*>[A,A,B]
*>A	*>A	*>A	*>A	*>A	*>A	*>A	*>A
*clefF4	*	*clefGv2	*	*clefG2	*	*clefG2	*
*k[b-e-]	*	*k[b-e-]	*	*k[b-e-]	*	*k[b-e-]	*
*B-:	*	*B-:	*	*B-:	*	*B-:	*
*M3/4	*	*M3/4	*	*M3/4	*	*M3/4	*
=1-	=1-	=1-	=1-	=1-	=1-	=1-	=1-
4BB-	.	4B-	.	4f	.	4dd	Gott-mein
4D	.	4B-	.	4f	.	4b-	-lob,Je-
4BB-	.	4f	.	4b-	.	4dd	es-sus
=2	=2	=2	=2	=2	=2	=2	=2
4C	.	4e-	.	4b-	.	2ee-	gehtreicht
4F	.	4c	.	4a	.	.	.
4B-	nun-mir	[4B-	nun-mir	4f	.	4dd	nun-mir
=3	=3	=3	=3	=3	=3	=3	=3
(4En	-mehrschon	4B-]	.	(4g	.	2cc	-mehrschon
4F)	.	4A	-mehrschon	4.f)	.	.	.
4G	zumdie	4B-	zumdie	.	.	4b-	zumdie
.	.	.	.	8en	.	.	.
=4	=4	=4	=4	=4	=4	=4	=4
2F	.	2f	.	2a	.	2cc	En-HÃ¤n-
4F;	.	4f;	.	4a;	.	4cc;	-de,-de,
=5	=5	=5	=5	=5	=5	=5	=5
4BB-	.	4f	.	4b-	.	4dd	dermein
4D	.	8B-L	.	8fL	.	4dd	mei-Je-
.	.	8cJ	.	8aJ	.	.	.
4BB-	.	4d	.	8gL	.	4dd	-ste-sus,
.	.	.	.	8fJ	.	.	.
=6	=6	=6	=6	=6	=6	=6	=6
4C	.	2c	.	2en	.	2g	Kampfder
4BB-	.	.	.	.	.	.	.
4AA	.	4c	.	[4f	istmich	4a	istmich
=7	=7	=7	=7	=7	=7	=7	=7
2GG	.	(4d	nunse-	4f]	.	2b-	nunse-
.	.	4B-)	.	8enL	nunse-	.	.
.	.	.	.	8dJ	.	.	.
4C	.	4c	voll--lig	4e	voll--lig	4b-	voll--lig
=8	=8	=8	=8	=8	=8	=8	=8
2.FF;	.	2.c;	.	2.f;	.	2.a;	-bracht;macht.
=9:|!	=9:|!	=9:|!	=9:|!	=9:|!	=9:|!	=9:|!	=9:|!
*>B	*>B	*>B	*>B	*>B	*>B	*>B	*>B
4F	.	4A	.	4c	.	4f	Drum
4En	.	4G	.	4c	.	4cc	las-
4C	.	4G	.	4en	.	4cc	-set
=10	=10	=10	=10	=10	=10	=10	=10
4F	.	2A	.	2f	.	2cc	mich,
4E-	.	.	.	.	.	.	.
4D	.	4f	-ich	[4b-	-ich	4dd	ich
=11	=11	=11	=11	=11	=11	=11	=11
2C	.	4g	rei-	4b-]	.	2ee-	rei-
.	.	4e-	.	8aL	rei-	.	.
.	.	.	.	8gJ	.	.	.
4F	.	4f	-se	4a	-se	4ee-	-ne
=12	=12	=12	=12	=12	=12	=12	=12
2.BB-;	.	2.f;	.	2.b-;	.	2.dd;	fort,
=13	=13	=13	=13	=13	=13	=13	=13
4BB-	.	4d	.	4f	.	4ff	mein
4D	.	8B-L	.	8b-L	.	4ff	Je-
.	.	8cJ	.	8aJ	.	.	.
4BB-	.	4d	.	4b-	.	4ff	-sus
=14	=14	=14	=14	=14	=14	=14	=14
(4C	.	2c	.	(4g	.	2.ee-	ist
4AA)	.	.	.	4cc)	.	.	.
4FF	.	4f	mein	4a	mein	.	.
=15	=15	=15	=15	=15	=15	=15	=15
(4BB-	.	2f	letz-	4b-	letz-	4dd	mein
4D)	.	.	.	(4.b-	-tes	4dd	letz-
4F	.	8.fL	-tes	.	.	4cc	-tes
.	.	.	.	8a)	.	.	.
.	.	16e-Jk	.	.	.	.	.
=16	=16	=16	=16	=16	=16	=16	=16
2.BB-;	.	2.d;	.	2.f;	.	2.b-;	Wort.
==|!	==|!	==|!	==|!	==|!	==|!	==|!	==|!
*-	*-	*-	*-	*-	*-	*-	*-
!!!RWG: Key is interpreted using the Humdrum key tool.
!!!URL-pdf: https://s9.imslp.org/files/imglnks/usimg/6/6b/IMSLP24489-PMLP09471-CCARH_Bach_Chorales.pdf#page=47 Musedata edition
!!!URL-pdf: https://s9.imslp.org/files/imglnks/usimg/7/7a/IMSLP04155-Bach_-_BGA_253-438.pdf#page=36 	Bach-Gesellschaft Ausgabe, Band 39 (pp.175-276) Leipzig: Breitkopf und Härtel, 1892. Plate B.W. XXXIX.
!!!END: 1994/06/06
!!!EMD: Converted from MuseData to Humdrum Dec 19, 2000, by Andreas Kornstaedt using muse2kern.
!!!EED: Craig Stuart Sapp
!!!EEV: 2024/03/31
!!!filter-keyboard: satb2gs
!!!title: @{OTL} (@{SCT})
